svg/file_image_remove.svg

<svg xmlns="http://www.w3.org/2000/svg" viewBox="0 0 24 24"><path d="M13.09 20H6l6-6 1.88 1.88c.62-.98 1.48-1.78 2.52-2.28L18 12v1.09c.33-.05.66-.09 1-.09s.67.04 1 .09V8l-6-6H6c-1.11 0-2 .89-2 2v16a2 2 0 0 0 2 2h7.81c-.35-.61-.6-1.28-.72-2M13 3.5 18.5 9H13zM8 9a2 2 0 1 1 0 4c-1.11 0-2-.89-2-2s.9-2 2-2m14.54 7.88L20.41 19l2.13 2.12-1.42 1.42L19 20.41l-2.12 2.13-1.41-1.42L17.59 19l-2.12-2.12 1.41-1.41L19 17.59l2.12-2.12z"/></svg>

<svg xmlns="http://www.w3.org/2000/svg" id="mdi-file-image-remove" viewBox="0 0 24 24"><path d="M13.09 20H6L12 14L13.88 15.88C14.5 14.9 15.36 14.1 16.4 13.6L18 12V13.09C18.33 13.04 18.66 13 19 13C19.34 13 19.67 13.04 20 13.09V8L14 2H6C4.89 2 4 2.89 4 4V20C4 21.1 4.89 22 6 22H13.81C13.46 21.39 13.21 20.72 13.09 20M13 3.5L18.5 9H13V3.5M8 9C9.11 9 10 9.9 10 11S9.11 13 8 13 6 12.11 6 11 6.9 9 8 9M22.54 16.88L20.41 19L22.54 21.12L21.12 22.54L19 20.41L16.88 22.54L15.47 21.12L17.59 19L15.47 16.88L16.88 15.47L19 17.59L21.12 15.47L22.54 16.88Z" /></svg>
